modules/hawcons-filled/icons/icon-67-document-graph.svg

<?xml version="1.0" encoding="UTF-8" standalone="no"?>
<svg width="32px" height="32px" viewBox="0 0 32 32" version="1.1" xmlns="http://www.w3.org/2000/svg" xmlns:xlink="http://www.w3.org/1999/xlink" xmlns:sketch="http://www.bohemiancoding.com/sketch/ns">
    <!-- Generator: Sketch 3.0.3 (7891) - http://www.bohemiancoding.com/sketch -->
    <title>icon 67 document graph</title>
    <desc>Created with Sketch.</desc>
    <defs></defs>
    <g id="Page-1" stroke="none" stroke-width="1" fill="none" fill-rule="evenodd" sketch:type="MSPage">
        <g id="icon-67-document-graph" sketch:type="MSArtboardGroup" fill="#929292">
            <path d="M19,3 L9.0085302,3 C7.8992496,3 7,3.89833832 7,5.00732994 L7,27.9926701 C7,29.1012878 7.89092539,30 8.99742191,30 L24.0025781,30 C25.1057238,30 26,29.1090746 26,28.0025781 L26,11 L21.0059191,11 C19.8980806,11 19,10.1132936 19,9.00189865 L19,3 L19,3 Z M20,3 L20,8.99707067 C20,9.55097324 20.4509752,10 20.990778,10 L26,10 L20,3 L20,3 Z M14.9593471,21.8014743 L12,24.9749855 L12,25 L22,25 L22,26 L12,26 L12,26 L11,26 L11,18 L12,18 L12,23.5087064 L14.9099918,20.3881222 L15.6413455,21.0701206 L17.1040529,22.4341173 L20.3064191,19 L19,19 L19,18 L22,18 L22,19 L22,21 L21,21 L21,19.7225047 L17.1534082,23.8474694 L16.4220545,23.165471 L14.9593471,21.8014743 L14.9593471,21.8014743 L14.9593471,21.8014743 Z" id="document-graph" sketch:type="MSShapeGroup"></path>
        </g>
    </g>
</svg>

<svg width="32" height="32" xmlns="http://www.w3.org/2000/svg"><path d="M19 3H9.009C7.899 3 7 3.898 7 5.007v22.986A2 2 0 0 0 8.997 30h15.006C25.106 30 26 29.11 26 28.003V11h-4.994A1.997 1.997 0 0 1 19 9.002V3zm1 0v5.997c0 .554.451 1.003.99 1.003H26l-6-7zm-5.04 18.801L12 24.975V25h10v1H11v-8h1v5.509l2.91-3.12.731.681 1.463 1.364L20.306 19H19v-1h3v3h-1v-1.277l-3.847 4.124-.73-.682-1.464-1.364z" fill="#929292" fill-rule="evenodd"/></svg>
